templates/_partials/svg/facebook.svg

<?xml version="1.0" encoding="UTF-8"?>
<svg width="22px" height="22px" viewBox="0 0 22 22" version="1.1" xmlns="http://www.w3.org/2000/svg" xmlns:xlink="http://www.w3.org/1999/xlink">
    <!-- Generator: Sketch 64 (93537) - https://sketch.com -->
    <title>logo-facebook</title>
    <desc>Created with Sketch.</desc>
    <g id="Boutique" stroke="none" stroke-width="1" fill="none" fill-rule="evenodd">
        <g id="Detail-Copy" transform="translate(-260.000000, -756.000000)" fill="#000000" fill-rule="nonzero">
            <g id="logo-facebook" transform="translate(260.000000, 756.000000)">
                <path d="M20.7855804,0 L1.21441964,0 C0.543826479,0.000271001514 0.000271001514,0.543826479 0,1.21441964 L0,20.7855804 C0.000271001514,21.4561735 0.543826479,21.999729 1.21441964,22 L11,22 L11,13.3571429 L8.3703125,13.3571429 L8.3703125,10.2142857 L11,10.2142857 L11,7.70982143 C11,4.86848214 12.9706696,3.32160714 15.5090179,3.32160714 C16.7234375,3.32160714 18.0296875,3.41294643 18.3331696,3.45321429 L18.3331696,6.42075893 L16.3109375,6.42075893 C14.9300446,6.42075893 14.6668304,7.07388393 14.6668304,8.03638393 L14.6668304,10.2142857 L17.9570089,10.2142857 L17.5273214,13.3571429 L14.6668304,13.3571429 L14.6668304,22 L20.7855804,22 C21.4561735,21.999729 21.999729,21.4561735 22,20.7855804 L22,1.21441964 C21.999729,0.543826479 21.4561735,0.000271001514 20.7855804,0 Z" id="Path"></path>
            </g>
        </g>
    </g>
</svg>

<svg xmlns="http://www.w3.org/2000/svg" viewBox="0 0 22 22" aria-hidden="true"><path d="M20.786 0H1.214C.544 0 0 .544 0 1.214v19.572C0 21.456.544 22 1.214 22H11v-8.643H8.37v-3.143H11V7.71c0-2.842 1.97-4.388 4.509-4.388 1.214 0 2.52.09 2.824.131v2.968h-2.022c-1.381 0-1.644.653-1.644 1.615v2.178h3.29l-.43 3.143h-2.86V22h6.119c.67 0 1.214-.544 1.214-1.214V1.214C22 .544 21.456 0 20.786 0z" fill="#000" fill-rule="nonzero"/></svg>
